icons/website-o.svg

<svg width="24" height="24" viewBox="0 0 24 24" xmlns="http://www.w3.org/2000/svg">
    <path fill-rule="evenodd"
        d="M8.40886 4.84925C7.64168 5.23538 6.94503 5.74152 6.34322 6.34333C5.12296 7.56358 4.29599 9.17381 4.06544 10.9715H6.91155C7.02863 8.69268 7.53256 6.60607 8.33248 4.99948C8.35757 4.94907 8.38303 4.89899 8.40886 4.84925ZM12 2C9.23908 2 6.73764 3.12048 4.929 4.92912C3.12052 6.7376 2 9.23886 2 12C2 14.7611 3.12052 17.2624 4.929 19.0709C6.73764 20.8795 9.23908 22 12 22C14.7612 22 17.2626 20.8797 19.0711 19.0711C20.8797 17.2626 22 14.7612 22 12C22 9.2388 20.8797 6.73742 19.0711 4.92888C17.2626 3.12033 14.7612 2 12 2ZM15.5921 4.84951C15.6178 4.89909 15.6432 4.94901 15.6682 4.99924C16.4683 6.60588 16.9723 8.6926 17.0894 10.9715H19.9346C19.7041 9.17366 18.8772 7.56334 17.6569 6.34309C17.0553 5.74153 16.359 5.23556 15.5921 4.84951ZM15.0865 10.9715C14.9712 8.95535 14.5222 7.1844 13.8779 5.8908C13.5205 5.1731 13.1313 4.65639 12.7471 4.3369C12.4385 4.08022 12.1925 4 12 4C11.8079 4 11.5621 4.08011 11.2535 4.33681C10.8694 4.65633 10.4802 5.1731 10.1228 5.8909C9.47874 7.18451 9.0297 8.95543 8.91445 10.9715H15.0865ZM8.91128 12.9715H15.0897C14.9797 15.0113 14.5282 16.8034 13.8779 18.1092C13.5205 18.8269 13.1313 19.3436 12.7471 19.6631C12.4385 19.9198 12.1925 20 12 20C11.8079 20 11.5621 19.9199 11.2535 19.6632C10.8694 19.3437 10.4802 18.8269 10.1228 18.1091C9.47268 16.8033 9.02126 15.0112 8.91128 12.9715ZM6.9087 12.9715H4.05834C4.27856 14.7921 5.11008 16.4235 6.34322 17.6567C6.94503 18.2585 7.64168 18.7646 8.40886 19.1508C8.38303 19.101 8.35757 19.0509 8.33248 19.0005C7.52589 17.3805 7.02025 15.2725 6.9087 12.9715ZM15.5921 19.1505C15.6178 19.1009 15.6432 19.051 15.6682 19.0008C16.475 17.3807 16.9807 15.2726 17.0922 12.9715H19.9417C19.7215 14.7923 18.89 16.4238 17.6569 17.6569C17.0553 18.2585 16.359 18.7644 15.5921 19.1505Z" />
</svg>

<svg xmlns="http://www.w3.org/2000/svg" width="24" height="24" viewBox="0 0 24 24">
    <path
        d="M8.409 4.85c-.767.385-1.464.892-2.066 1.493-1.22 1.22-2.047 2.83-2.278 4.629h2.847c.117-2.28.62-4.366 1.42-5.973l.077-.15zM12 2C9.24 2 6.738 3.12 4.929 4.93 3.121 6.737 2 9.238 2 12s1.12 5.262 2.929 7.07C6.738 20.88 9.239 22 12 22s5.263-1.12 7.071-2.929C20.88 17.263 22 14.761 22 12s-1.12-5.263-2.929-7.071C17.263 3.12 14.761 2 12 2zm3.592 2.85l.076.15c.8 1.606 1.304 3.693 1.421 5.972h2.846c-.23-1.798-1.058-3.409-2.278-4.629-.602-.601-1.298-1.107-2.065-1.493zm-.506 6.122c-.115-2.017-.564-3.788-1.208-5.081-.357-.718-.747-1.235-1.13-1.554C12.437 4.08 12.192 4 12 4c-.192 0-.438.08-.746.337-.385.32-.774.836-1.131 1.554-.644 1.294-1.093 3.064-1.209 5.08h6.172zm-6.175 2h6.179c-.11 2.04-.562 3.831-1.212 5.137-.357.718-.747 1.235-1.13 1.554-.31.257-.555.337-.748.337-.192 0-.438-.08-.746-.337-.385-.32-.774-.836-1.131-1.554-.65-1.306-1.102-3.098-1.212-5.138zm-2.002 0h-2.85c.22 1.82 1.051 3.452 2.284 4.685.602.602 1.299 1.108 2.066 1.494L8.332 19c-.806-1.62-1.312-3.729-1.423-6.03zm8.683 6.179l.076-.15c.807-1.62 1.313-3.728 1.424-6.03h2.85c-.22 1.821-1.052 3.453-2.285 4.686-.602.602-1.298 1.107-2.065 1.494z" />
</svg>
